icons/copilot-48.svg

<svg xmlns="http://www.w3.org/2000/svg" width="48" height="48" viewBox="0 0 48 48"><path d="M21 29.5a1.5 1.5 0 00-3 0v4a1.5 1.5 0 003 0v-4zm9 0a1.5 1.5 0 00-3 0v4a1.5 1.5 0 003 0v-4z"/><path d="M34.895 8.939c1.89.602 3.378 1.472 4.41 2.73 1.397 1.703 1.736 3.837 1.55 6.19l.016.032 1.684 3.79.964.193a3.5 3.5 0 012.161 1.398l1.668 2.335c.424.593.652 1.304.652 2.033v4.86c0 1.058-.619 1.973-1.129 2.585-.56.673-1.273 1.308-1.934 1.836a26.616 26.616 0 01-2.597 1.824l-.048.029h-.001l-.012.008-.021.014-.058.035c-.445.27-.898.528-1.358.773a37.655 37.655 0 01-3.883 1.79C33.69 42.69 29.123 44 24 44c-5.123 0-9.69-1.311-12.959-2.605a38.197 38.197 0 01-3.884-1.79c-.46-.245-.912-.503-1.357-.773l-.08-.05-.011-.007-.001-.001-.048-.03c-.041-.025-.1-.06-.173-.107a26.449 26.449 0 01-2.424-1.716c-.66-.528-1.373-1.163-1.934-1.836C.619 34.473 0 33.558 0 32.5v-4.86c0-.729.228-1.44.652-2.033l1.668-2.335a3.5 3.5 0 012.161-1.398l.964-.193 1.684-3.79.015-.032c-.185-2.353.154-4.487 1.55-6.19 1.033-1.258 2.52-2.128 4.411-2.73C15.84 6.82 19.71 5.5 24 5.5c4.29 0 8.16 1.321 10.895 3.439zM23.643 20.5v-.001a8.385 8.385 0 01-.946 1.894c-1.263 1.866-3.286 3.044-6.18 3.297-3.115.273-5.498-.171-7.111-1.707a5.848 5.848 0 01-1.077-1.405l-.329.74v13.328c.163.092.353.197.569.312a35.355 35.355 0 003.577 1.647C15.19 39.811 19.373 41 24 41c4.627 0 8.809-1.189 11.854-2.394a35.238 35.238 0 003.576-1.647c.217-.115.407-.22.57-.312V23.32l-.329-.74a5.842 5.842 0 01-1.078 1.404c-1.612 1.536-3.995 1.98-7.11 1.707-2.894-.253-4.917-1.431-6.18-3.297a8.427 8.427 0 01-.946-1.894h-.714zm-12.514.907c.107.152.222.286.346.404.675.643 1.966 1.138 4.78.892 2.139-.187 3.277-.985 3.958-1.99.067-.1.131-.203.192-.31.607-1.067.897-2.504.968-4.242.095-2.367-.35-3.664-1.021-4.309-.623-.599-1.877-1.034-4.506-.514-2.668.527-4.082 1.322-4.832 2.235-.721.88-1.047 2.144-.869 4.174.157 1.796.474 2.934.984 3.66zm26.679-3.183c.017-.154.033-.313.047-.478.178-2.03-.148-3.294-.869-4.174-.75-.913-2.164-1.708-4.832-2.235-2.629-.52-3.883-.085-4.506.514-.671.645-1.116 1.942-1.021 4.31.071 1.737.361 3.174.968 4.24a4.7 4.7 0 00.192.31c.638.943 1.679 1.703 3.568 1.948.129.017.259.031.389.043 2.111.184 3.365-.047 4.145-.447.26-.133.467-.285.636-.445.662-.63 1.073-1.711 1.283-3.586zM22.5 17a1 1 0 001 1h1a1 1 0 000-2h-1a1 1 0 00-1 1z"/></svg>

<svg xmlns="http://www.w3.org/2000/svg" width="48" height="48" viewBox="0 0 48 48">
  <defs/>
  <path d="M21,29.5 A1.5 1.5 0 0 0 18,29.5 L18,33.5 A1.5 1.5 0 0 0 21,33.5 L21,29.5 Z M30,29.5 A1.5 1.5 0 0 0 27,29.5 L27,33.5 A1.5 1.5 0 0 0 30,33.5 L30,29.5 Z"/>
  <path d="M34.895,8.939 C36.785,9.541 38.273,10.411 39.305,11.669 C40.702,13.372 41.041,15.506 40.855,17.859 L40.871,17.891 L42.555,21.681 L43.519,21.874 C44.391,22.049 45.163,22.548 45.68,23.272 L47.348,25.607 C47.772,26.2 48,26.911 48,27.64 L48,32.5 C48,33.558 47.381,34.473 46.871,35.085 C46.311,35.758 45.598,36.393 44.937,36.921 C44.109,37.58 43.241,38.189 42.34,38.745 L42.292,38.774 L42.291,38.774 L42.279,38.782 L42.258,38.796 L42.2,38.831 C41.755,39.101 41.302,39.359 40.842,39.604 C39.583,40.274 38.286,40.871 36.959,41.394 C33.69,42.69 29.123,44 24,44 C18.877,44 14.31,42.689 11.041,41.395 C9.714,40.871 8.417,40.274 7.157,39.605 C6.697,39.36 6.245,39.102 5.8,38.832 C5.773,38.815 5.747,38.799 5.72,38.782 L5.709,38.775 L5.708,38.774 L5.66,38.744 C5.619,38.719 5.56,38.684 5.487,38.637 C4.648,38.111 3.838,37.538 3.063,36.921 C2.403,36.393 1.69,35.758 1.129,35.085 C0.619,34.473 0,33.558 0,32.5 L0,27.64 C0,26.911 0.228,26.2 0.652,25.607 L2.32,23.272 C2.837,22.548 3.609,22.049 4.481,21.874 L5.445,21.681 L7.129,17.891 L7.144,17.859 C6.959,15.506 7.298,13.372 8.694,11.669 C9.727,10.411 11.214,9.541 13.105,8.939 C15.84,6.82 19.71,5.5 24,5.5 C28.29,5.5 32.16,6.821 34.895,8.939 Z M23.643,20.5 L23.643,20.499 C23.405,21.165 23.097,21.803 22.697,22.393 C21.434,24.259 19.411,25.437 16.517,25.69 C13.402,25.963 11.019,25.519 9.406,23.983 C8.968,23.565 8.615,23.093 8.329,22.578 L8,23.318 L8,36.646 C8.163,36.738 8.353,36.843 8.569,36.958 C9.73,37.573 10.924,38.123 12.146,38.605 C15.19,39.811 19.373,41 24,41 C28.627,41 32.809,39.811 35.854,38.606 C37.076,38.124 38.27,37.574 39.43,36.959 C39.647,36.844 39.837,36.739 40,36.647 L40,23.32 L39.671,22.58 C39.385,23.094 39.032,23.566 38.593,23.984 C36.981,25.52 34.598,25.964 31.483,25.691 C28.589,25.438 26.566,24.26 25.303,22.394 C24.904,21.804 24.595,21.166 24.357,20.5 C24.119,20.501 23.881,20.501 23.643,20.5 Z M11.129,21.407 C11.236,21.559 11.351,21.693 11.475,21.811 C12.15,22.454 13.441,22.949 16.255,22.703 C18.394,22.516 19.532,21.718 20.213,20.713 C20.28,20.613 20.344,20.51 20.405,20.403 C21.012,19.336 21.302,17.899 21.373,16.161 C21.468,13.794 21.023,12.497 20.352,11.852 C19.729,11.253 18.475,10.818 15.846,11.338 C13.178,11.865 11.764,12.66 11.014,13.573 C10.293,14.453 9.967,15.717 10.145,17.747 C10.302,19.543 10.619,20.681 11.129,21.407 Z M37.808,18.224 C37.825,18.07 37.841,17.911 37.855,17.746 C38.033,15.716 37.707,14.452 36.986,13.572 C36.236,12.659 34.822,11.864 32.154,11.337 C29.525,10.817 28.271,11.252 27.648,11.851 C26.977,12.496 26.532,13.793 26.627,16.161 C26.698,17.898 26.988,19.335 27.595,20.401 C27.655,20.507 27.719,20.61 27.787,20.711 C28.425,21.654 29.466,22.414 31.355,22.659 C31.484,22.676 31.614,22.69 31.744,22.702 C33.855,22.886 35.109,22.655 35.889,22.255 C36.149,22.122 36.356,21.97 36.525,21.81 C37.187,21.18 37.598,20.099 37.808,18.224 Z M22.5,17 C22.5,17.552 22.948,18 23.5,18 L24.5,18 C25.052,18 25.5,17.552 25.5,17 C25.5,16.448 25.052,16 24.5,16 L23.5,16 C22.948,16 22.5,16.448 22.5,17 Z"/>
</svg>
